**harmony	**harte	**kern	**silbe	**rhyme	**timestamp	**phrase	**leadinstrument
*M4/4	*M4/4	*ICvox	*	*	*	*	*
*	*	*VRlead	*	*	*	*	*
*	*	*Hstimme	*	*	*	*	*
*b:	*b:	*	*	*	*b:	*b:	*b:
1r;	1r	r;	.	.	0	.	r
=1	=1	=1	=1	=1	=1	=1	=1
*>Letter>A	*>Letter>A	*>Letter>A	*>Letter>A	*>Letter>A	*>Letter>A	*>Letter>A	*>Letter>A
*>Label>Intro	*>Label>Intro	*>Label>Intro	*>Label>Intro	*>Label>Intro	*>Label>Intro	*>Label>Intro	*>Label>Intro
*	*	*M4/4	*	*	*	*	*
*	*	*clefF4	*	*	*	*	*
1Bmm	B:min7	1r	.	.	1.022	newline	synthesizer
=2	=2	=2	=2	=2	=2	=2	=2
1Bmm	B:min7	1r	.	.	2.473	.	synthesizer
=3	=3	=3	=3	=3	=3	=3	=3
1Bmm	B:min7	1r	.	.	3.924	.	synthesizer
=4	=4	=4	=4	=4	=4	=4	=4
1Bmm	B:min7	1r	.	.	5.376	.	synthesizer
=5	=5	=5	=5	=5	=5	=5	=5
*>Letter>B	*>Letter>B	*>Letter>B	*>Letter>B	*>Letter>B	*>Letter>B	*>Letter>B	*>Letter>B
*>Label>Interlude	*>Label>Interlude	*>Label>Interlude	*>Label>Interlude	*>Label>Interlude	*>Label>Interlude	*>Label>Interlude	*>Label>Interlude
1GMM	G:maj7	1r	.	.	6.827	newline	synthesizer
=6	=6	=6	=6	=6	=6	=6	=6
1F#mm	F#:min7	1r	.	.	8.269	.	synthesizer
=7	=7	=7	=7	=7	=7	=7	=7
1Em	E:sus2(b7)	1r	.	.	9.711	.	synthesizer
=8	=8	=8	=8	=8	=8	=8	=8
1Em	E:sus2(b7)	1r	.	.	11.153	.	synthesizer
=9	=9	=9	=9	=9	=9	=9	=9
1GMM	G:maj7	1r	.	.	12.594	newline	synthesizer
=10	=10	=10	=10	=10	=10	=10	=10
1F#mm	F#:min7	1r	.	.	14.04	.	synthesizer
=11	=11	=11	=11	=11	=11	=11	=11
1Em	E:sus2(b7)	1r	.	.	15.485	.	synthesizer
=12	=12	=12	=12	=12	=12	=12	=12
2Em	E:sus2(b7)	1r	.	.	16.931	.	synthesizer
4DM	D:maj	.	.	.	17.654	.	synthesizer
4AM	A:sus2	.	.	.	18.015	.	synthesizer
=13	=13	=13	=13	=13	=13	=13	=13
*>Letter>A	*>Letter>A	*>Letter>A	*>Letter>A	*>Letter>A	*>Letter>A	*>Letter>A	*>Letter>A
*>Label>Trans	*>Label>Trans	*>Label>Trans	*>Label>Trans	*>Label>Trans	*>Label>Trans	*>Label>Trans	*>Label>Trans
1Bmm	B:min7	1r	.	.	18.376	newline	drums
=14	=14	=14	=14	=14	=14	=14	=14
1Bmm	B:min7	1r	.	.	19.817	.	drums
=15	=15	=15	=15	=15	=15	=15	=15
1Bmm	B:min7	1r	.	.	21.257	.	drums
=16	=16	=16	=16	=16	=16	=16	=16
1Bmm	B:min7	1r	.	.	22.698	.	drums
=17	=17	=17	=17	=17	=17	=17	=17
*>Letter>C	*>Letter>C	*>Letter>C	*>Letter>C	*>Letter>C	*>Letter>C	*>Letter>C	*>Letter>C
*>Label>Verse	*>Label>Verse	*>Label>Verse	*>Label>Verse	*>Label>Verse	*>Label>Verse	*>Label>Verse	*>Label>Verse
1Bm	B:min	4r	.	.	24.138	newline	voice
.	.	8F#	Last	.	.	.	.
.	.	4E	night	.	.	.	.
.	.	8D	a	.	.	.	.
.	.	8E	lit-	.	.	.	.
.	.	8F#	-tle	.	.	.	.
=18	=18	=18	=18	=18	=18	=18	=18
1Bm	B:min	4E	dan-	.	25.582	.	voice
.	.	8D	-cer	.	.	.	.
.	.	8r	.	.	.	.	.
.	.	4r	.	.	.	.	.
.	.	4E	came	.	.	.	.
=19	=19	=19	=19	=19	=19	=19	=19
1Bm	B:min	4F#	danc-	.	27.026	.	voice
.	.	4F#	-in'	.	.	.	.
.	.	8E	to	.	.	.	.
.	.	4E	my	.	.	.	.
.	.	[8BB	door.	A	.	.	.
=20	=20	=20	=20	=20	=20	=20	=20
1Bm	B:min	2BB]	_	.	28.47	.	voice
.	.	2r	.	.	.	.	.
=21	=21	=21	=21	=21	=21	=21	=21
1AM	A:sus4	4r	.	.	29.914	newline	voice
.	.	8F#	Last	.	.	.	.
.	.	4E	night	.	.	.	.
.	.	8D	a	.	.	.	.
.	.	8E	lit-	.	.	.	.
.	.	8F#	-tle	.	.	.	.
=22	=22	=22	=22	=22	=22	=22	=22
1AM	A:sus4	4E	an-	.	31.355	.	voice
.	.	4D	-gel	.	.	.	.
.	.	4r	.	.	.	.	.
.	.	4E	came	.	.	.	.
=23	=23	=23	=23	=23	=23	=23	=23
1GMM	G:maj7	4F#	pump-	.	32.795	.	voice
.	.	4F#	-in'	.	.	.	.
.	.	8E	on	.	.	.	.
.	.	4E	my	.	.	.	.
.	.	[8BB	floor.	A	.	.	.
=24	=24	=24	=24	=24	=24	=24	=24
2Emm	E:min7	2BB]	_	.	34.235	.	voice
4DM	D:1	2r	.	.	34.956	.	voice
4AM	A:1	.	.	.	35.316	.	voice
=25	=25	=25	=25	=25	=25	=25	=25
1Bm	B:min	4r	.	.	35.676	newline	voice
.	.	8F#	She	.	.	.	.
.	.	4E	said	.	.	.	.
.	.	8D	uh	.	.	.	.
.	.	4F#	come	.	.	.	.
=26	=26	=26	=26	=26	=26	=26	=26
1Bm	B:min	4E	ba-	.	37.125	.	voice
.	.	4D	-by	.	.	.	.
.	.	4r	.	.	.	.	.
.	.	8F#	bought	.	.	.	.
.	.	8E	a	.	.	.	.
=27	=27	=27	=27	=27	=27	=27	=27
1Bm	B:min	4F#	li-	.	38.575	.	voice
.	.	4F#	-cense	.	.	.	.
.	.	4E	for	.	.	.	.
.	.	4F#	love;	B	.	.	.
=28	=28	=28	=28	=28	=28	=28	=28
1Bm	B:min	4r	.	.	40.024	.	voice
.	.	4r	.	.	.	.	.
.	.	2r	.	.	.	.	.
=29	=29	=29	=29	=29	=29	=29	=29
1AM	A:sus4	4r	.	.	41.474	newline	voice
.	.	8F#	and	.	.	.	.
.	.	4E	if	.	.	.	.
.	.	8D	it	.	.	.	.
.	.	4F#	ex-	.	.	.	.
=30	=30	=30	=30	=30	=30	=30	=30
1AM	A:sus4	4E	-pir-	.	42.912	.	voice
.	.	4D	-es	.	.	.	.
.	.	4r	.	.	.	.	.
.	.	4f#	pray	.	.	.	.
=31	=31	=31	=31	=31	=31	=31	=31
1GMM	G:maj7	4f#	help	.	44.349	.	voice
.	.	4f#	from	.	.	.	.
.	.	4e	a-	.	.	.	.
.	.	4f#	-bove.	B	.	.	.
=32	=32	=32	=32	=32	=32	=32	=32
2Emm	E:min7	4r	.	.	45.787	.	voice
.	.	8f#	be-	.	.	.	.
.	.	8f#	-cause!.	.	.	.	.
4DM	D:1	4f	_	.	46.506	.	voice
4AM	A:1	4r	.	.	46.865	.	voice
=33	=33	=33	=33	=33	=33	=33	=33
*>Letter>C	*>Letter>C	*>Letter>C	*>Letter>C	*>Letter>C	*>Letter>C	*>Letter>C	*>Letter>C
*>Label>Chorus	*>Label>Chorus	*>Label>Chorus	*>Label>Chorus	*>Label>Chorus	*>Label>Chorus	*>Label>Chorus	*>Label>Chorus
1Bm	B:min	4r	.	.	47.225	newline	voice
.	.	8f#	In	.	.	.	.
.	.	8f#	the	.	.	.	.
.	.	8f#	mid-	.	.	.	.
.	.	4f#	-night	.	.	.	.
.	.	8f#	hour	.	.	.	.
=34	=34	=34	=34	=34	=34	=34	=34
1Bm	B:min	4f	_	.	48.664	.	voice
.	.	4r	.	.	.	.	.
.	.	8r	.	.	.	.	.
.	.	8e	she	.	.	.	.
.	.	4f#	cried	.	.	.	.
=35	=35	=35	=35	=35	=35	=35	=35
1Bm	B:min	4f#	more	.	50.103	.	voice
.	.	4r	.	.	.	.	.
.	.	4e	more	.	.	.	.
.	.	8r	.	.	.	.	.
.	.	[8B	more.	.	.	.	.
=36	=36	=36	=36	=36	=36	=36	=36
1Bm	B:min	4B]	_	.	51.542	.	voice
.	.	4r	.	.	.	.	.
.	.	2r	.	.	.	.	.
=37	=37	=37	=37	=37	=37	=37	=37
1DM	D:maj/5	4r	.	.	52.981	newline	voice
.	.	8f#	With	.	.	.	.
.	.	8f#	a	.	.	.	.
.	.	8f#	re-	.	.	.	.
.	.	4f#	-bel	.	.	.	.
.	.	8f#	yell	.	.	.	.
=38	=38	=38	=38	=38	=38	=38	=38
1DM	D:maj/5	4f	_	.	54.426	.	voice
.	.	4r	.	.	.	.	.
.	.	8r	.	.	.	.	.
.	.	8e	she	.	.	.	.
.	.	4f#	cried	.	.	.	.
=39	=39	=39	=39	=39	=39	=39	=39
1GMM	G:maj7	4f#	more	.	55.87	.	voice
.	.	4r	.	.	.	.	.
.	.	4e	more	.	.	.	.
.	.	8r	.	.	.	.	.
.	.	[8B	more.	.	.	.	.
=40	=40	=40	=40	=40	=40	=40	=40
2Emm	E:min7	8B]	_	.	57.315	.	voice
.	.	8d	_	.	.	.	.
.	.	2B	_	.	.	.	.
4DM	D:1	.	.	.	58.037	.	voice
4AM	A:1	4r	.	.	58.398	.	voice
=41	=41	=41	=41	=41	=41	=41	=41
1Bm	B:min	4r	.	.	58.759	newline	voice
.	.	8f#	In	.	.	.	.
.	.	8f#	the	.	.	.	.
.	.	8f#	mid-	.	.	.	.
.	.	4f#	-night	.	.	.	.
.	.	8f#	hour	.	.	.	.
=42	=42	=42	=42	=42	=42	=42	=42
1Bm	B:min	4f	_	.	60.201	.	voice
.	.	8f	babe	.	.	.	.
.	.	8r	.	.	.	.	.
.	.	2r	.	.	.	.	.
=43	=43	=43	=43	=43	=43	=43	=43
1Bm	B:min	4f#	more	.	61.643	.	voice
.	.	4r	.	.	.	.	.
.	.	4e	more	.	.	.	.
.	.	8r	.	.	.	.	.
.	.	[8B	more.	.	.	.	.
=44	=44	=44	=44	=44	=44	=44	=44
1Bm	B:min	2B]	_	.	63.085	.	voice
.	.	2r	.	.	.	.	.
=45	=45	=45	=45	=45	=45	=45	=45
1DM	D:maj/5	4r	.	.	64.526	newline	voice
.	.	8f#	With	.	.	.	.
.	.	8f#	a	.	.	.	.
.	.	8f#	re-	.	.	.	.
.	.	4f#	-bel	.	.	.	.
.	.	8f#	yell	.	.	.	.
=46	=46	=46	=46	=46	=46	=46	=46
1DM	D:maj/5	2f	_	.	65.966	.	voice
.	.	2r	.	.	.	.	.
=47	=47	=47	=47	=47	=47	=47	=47
1GMM	G:maj7	2f#	more	.	67.406	.	voice
.	.	4.e	more	.	.	.	.
.	.	[8f#	more.	.	.	.	.
=48	=48	=48	=48	=48	=48	=48	=48
2Emm	E:min7	4f#]	_	.	68.847	.	voice
.	.	4r	.	.	.	.	.
4DM	D:1	4f#	more	.	69.567	.	voice
4AM	A:1	4f#	more	.	69.927	.	voice
=49	=49	=49	=49	=49	=49	=49	=49
*>Letter>A	*>Letter>A	*>Letter>A	*>Letter>A	*>Letter>A	*>Letter>A	*>Letter>A	*>Letter>A
*>Label>Trans	*>Label>Trans	*>Label>Trans	*>Label>Trans	*>Label>Trans	*>Label>Trans	*>Label>Trans	*>Label>Trans
1Bmm	B:min7	4f#	more.	.	70.287	newline	drums
.	.	4B	_	.	.	.	.
.	.	2r	.	.	.	.	.
=50	=50	=50	=50	=50	=50	=50	=50
1Bmm	B:min7	1r	.	.	71.734	.	drums
=51	=51	=51	=51	=51	=51	=51	=51
1Bmm	B:min7	1r	.	.	73.18	.	drums
=52	=52	=52	=52	=52	=52	=52	=52
1Bmm	B:min7	1r	.	.	74.627	.	drums
=53	=53	=53	=53	=53	=53	=53	=53
*>Letter>C	*>Letter>C	*>Letter>C	*>Letter>C	*>Letter>C	*>Letter>C	*>Letter>C	*>Letter>C
*>Label>Verse	*>Label>Verse	*>Label>Verse	*>Label>Verse	*>Label>Verse	*>Label>Verse	*>Label>Verse	*>Label>Verse
1Bm	B:min	4r	.	.	76.074	newline	voice
.	.	8F#	She	.	.	.	.
.	.	4E	don't	.	.	.	.
.	.	8D	_	.	.	.	.
.	.	4F#	like	.	.	.	.
=54	=54	=54	=54	=54	=54	=54	=54
1Bm	B:min	4E	slav-	.	77.522	.	voice
.	.	4D	-ery.	.	.	.	.
.	.	8r	.	.	.	.	.
.	.	8D	she	.	.	.	.
.	.	4E	won't	.	.	.	.
=55	=55	=55	=55	=55	=55	=55	=55
1Bm	B:min	4F#	sit	.	78.971	.	voice
.	.	4r	.	.	.	.	.
.	.	4G	and	.	.	.	.
.	.	4F#	beg.	C	.	.	.
=56	=56	=56	=56	=56	=56	=56	=56
1Bm	B:min	1r	.	.	80.419	.	voice
=57	=57	=57	=57	=57	=57	=57	=57
1DM	D:maj/5	4r	.	.	81.867	newline	voice
.	.	8F#	But	.	.	.	.
.	.	4E	when	.	.	.	.
.	.	8D	I'm	.	.	.	.
.	.	8E	tired	.	.	.	.
.	.	8F#	and	.	.	.	.
=58	=58	=58	=58	=58	=58	=58	=58
1DM	D:maj/5	4E	lone-	.	83.314	.	voice
.	.	4.D	-ly:	.	.	.	.
.	.	8r	.	.	.	.	.
.	.	4E	she's	.	.	.	.
=59	=59	=59	=59	=59	=59	=59	=59
1GMM	G:maj7	4F#	near	.	84.76	.	voice
.	.	4F#	to	.	.	.	.
.	.	2BB	bed.	C	.	.	.
=60	=60	=60	=60	=60	=60	=60	=60
2Emm	E:min7	1r	.	.	86.207	.	voice
4DM	D:1	.	.	.	86.931	.	voice
4AM	A:1	.	.	.	87.292	.	voice
=61	=61	=61	=61	=61	=61	=61	=61
1Bm	B:min	4r	.	.	87.654	newline	voice
.	.	4F#	What	.	.	.	.
.	.	8F#	set	.	.	.	.
.	.	4F#	you	.	.	.	.
.	.	[8F#	free,	D	.	.	.
=62	=62	=62	=62	=62	=62	=62	=62
1Bm	B:min	4F#]	_	.	89.089	.	voice
.	.	8r	.	.	.	.	.
.	.	8D	and	.	.	.	.
.	.	8F#	brought	.	.	.	.
.	.	8F#	you	.	.	.	.
.	.	8F#	to	.	.	.	.
.	.	[8F#	me	D	.	.	.
=63	=63	=63	=63	=63	=63	=63	=63
1Bm	B:min	4.F#]	_	.	90.524	.	voice
.	.	[8BB	babe?.	.	.	.	.
.	.	4BB]	_	.	.	.	.
.	.	4r	.	.	.	.	.
=64	=64	=64	=64	=64	=64	=64	=64
1Bm	B:min	1r	.	.	91.96	.	voice
=65	=65	=65	=65	=65	=65	=65	=65
1DM	D:maj/5	4r	.	.	93.395	newline	voice
.	.	4f#	What	.	.	.	.
.	.	4f#	set	.	.	.	.
.	.	4e#	you	.	.	.	.
=66	=66	=66	=66	=66	=66	=66	=66
1DM	D:maj/5	2f#	free?.	D	94.848	.	voice
.	.	8r	.	.	.	.	.
.	.	8e#	I	.	.	.	.
.	.	8f#	need	.	.	.	.
.	.	8f#	you	.	.	.	.
=67	=67	=67	=67	=67	=67	=67	=67
1GMM	G:maj7	8f#	here	.	96.302	.	voice
.	.	8e#	_	.	.	.	.
.	.	4f#	by	.	.	.	.
.	.	8f#	me.	D	.	.	.
.	.	4.f	_	.	.	.	.
=68	=68	=68	=68	=68	=68	=68	=68
2Emm	E:min7	4r	.	.	97.755	.	voice
.	.	8f#	be-	.	.	.	.
.	.	[8f#	-cause!	.	.	.	.
4DM	D:1	2f#]	_	.	98.482	.	voice
4AM	A:1	.	.	.	98.846	.	voice
=69	=69	=69	=69	=69	=69	=69	=69
*>Letter>C	*>Letter>C	*>Letter>C	*>Letter>C	*>Letter>C	*>Letter>C	*>Letter>C	*>Letter>C
*>Label>Chorus	*>Label>Chorus	*>Label>Chorus	*>Label>Chorus	*>Label>Chorus	*>Label>Chorus	*>Label>Chorus	*>Label>Chorus
1Bm	B:min	4r	.	.	99.209	newline	voice
.	.	8f#	In	.	.	.	.
.	.	8f#	the	.	.	.	.
.	.	8f#	mid-	.	.	.	.
.	.	4f#	-night	.	.	.	.
.	.	8f#	hour	.	.	.	.
=70	=70	=70	=70	=70	=70	=70	=70
1Bm	B:min	4f	_	.	100.633	.	voice
.	.	4r	.	.	.	.	.
.	.	8r	.	.	.	.	.
.	.	8e	she	.	.	.	.
.	.	4f#	cried	.	.	.	.
=71	=71	=71	=71	=71	=71	=71	=71
1Bm	B:min	4f#	more	.	102.056	.	voice
.	.	4r	.	.	.	.	.
.	.	4e	more	.	.	.	.
.	.	8r	.	.	.	.	.
.	.	[8B	more	.	.	.	.
=72	=72	=72	=72	=72	=72	=72	=72
1Bm	B:min	8B]	_	.	103.48	.	voice
.	.	8d	_	.	.	.	.
.	.	4B	_	.	.	.	.
.	.	2r	.	.	.	.	.
=73	=73	=73	=73	=73	=73	=73	=73
1DM	D:maj/5	4r	.	.	104.903	newline	voice
.	.	8f#	With	.	.	.	.
.	.	8f#	a	.	.	.	.
.	.	8f#	re-	.	.	.	.
.	.	4f#	-bel	.	.	.	.
.	.	8f#	yell	.	.	.	.
=74	=74	=74	=74	=74	=74	=74	=74
1DM	D:maj/5	4f	_	.	106.354	.	voice
.	.	4r	.	.	.	.	.
.	.	8r	.	.	.	.	.
.	.	8e	she	.	.	.	.
.	.	4f#	cried	.	.	.	.
=75	=75	=75	=75	=75	=75	=75	=75
1GMM	G:maj7	4f#	more	.	107.805	.	voice
.	.	4r	.	.	.	.	.
.	.	4e	more	.	.	.	.
.	.	8r	.	.	.	.	.
.	.	[8B	more.	.	.	.	.
=76	=76	=76	=76	=76	=76	=76	=76
2Emm	E:min7	8B]	_	.	109.255	.	voice
.	.	8d	_	.	.	.	.
.	.	4.B	_	.	.	.	.
4DM	D:1	.	.	.	109.981	.	voice
.	.	8r	.	.	.	.	.
4AM	A:1	4r	.	.	110.343	.	voice
=77	=77	=77	=77	=77	=77	=77	=77
1Bm	B:min	4r	.	.	110.706	newline	voice
.	.	8f#	In	.	.	.	.
.	.	8f#	the	.	.	.	.
.	.	8f#	mid-	.	.	.	.
.	.	4f#	-night	.	.	.	.
.	.	8f#	hour	.	.	.	.
=78	=78	=78	=78	=78	=78	=78	=78
1Bm	B:min	4f	_	.	112.148	.	voice
.	.	2f#	babe:	.	.	.	.
.	.	4r	.	.	.	.	.
=79	=79	=79	=79	=79	=79	=79	=79
1Bm	B:min	4f#	more	.	113.59	.	voice
.	.	4r	.	.	.	.	.
.	.	4e	more	.	.	.	.
.	.	8r	.	.	.	.	.
.	.	[8B	more.	.	.	.	.
=80	=80	=80	=80	=80	=80	=80	=80
1Bm	B:min	2B]	_	.	115.031	.	voice
.	.	2r	.	.	.	.	.
=81	=81	=81	=81	=81	=81	=81	=81
1DM	D:maj/5	4r	.	.	116.473	newline	voice
.	.	8f#	With	.	.	.	.
.	.	8f#	a	.	.	.	.
.	.	8f#	re-	.	.	.	.
.	.	4f#	-bel	.	.	.	.
.	.	8f#	yell	.	.	.	.
=82	=82	=82	=82	=82	=82	=82	=82
1DM	D:maj/5	2.f	_	.	117.92	.	voice
.	.	4r	.	.	.	.	.
=83	=83	=83	=83	=83	=83	=83	=83
1GMM	G:maj7	2f#	more	.	119.367	.	voice
.	.	4.e	more	.	.	.	.
.	.	[8f#	more.	.	.	.	.
=84	=84	=84	=84	=84	=84	=84	=84
1GMM	G:maj7	2f#]	_	.	120.814	.	voice
.	.	2r	.	.	.	.	.
=85	=85	=85	=85	=85	=85	=85	=85
*>Letter>B	*>Letter>B	*>Letter>B	*>Letter>B	*>Letter>B	*>Letter>B	*>Letter>B	*>Letter>B
*>Label>Interlude	*>Label>Interlude	*>Label>Interlude	*>Label>Interlude	*>Label>Interlude	*>Label>Interlude	*>Label>Interlude	*>Label>Interlude
1GMM	G:maj7	1r	.	.	122.26	newline	synthesizer
=86	=86	=86	=86	=86	=86	=86	=86
1F#mm	F#:min7	1r	.	.	123.704	.	synthesizer
=87	=87	=87	=87	=87	=87	=87	=87
1Em	E:sus2(b7)	8r	.	.	125.148	.	synthesizer
.	.	8BB	I	.	.	.	.
.	.	8E	hear	.	.	.	.
.	.	8D	he	.	.	.	.
.	.	4E	lives	.	.	.	.
.	.	8E	in	.	.	.	.
.	.	8D	a	.	.	.	.
=88	=88	=88	=88	=88	=88	=88	=88
1Em	E:sus2(b7)	4E	his	.	126.592	.	synthesizer
.	.	4F#	own	.	.	.	.
.	.	8E	hea-	(D	.	.	.
.	.	4D	-ven.	d)	.	.	.
.	.	[8BB	_	.	.	.	.
=89	=89	=89	=89	=89	=89	=89	=89
1GMM	G:maj7	4BB]	_	.	128.036	newline	synthesizer
.	.	4r	.	.	.	.	.
.	.	2r	.	.	.	.	.
=90	=90	=90	=90	=90	=90	=90	=90
1F#mm	F#:min7	2r	.	.	129.483	.	synthesizer
.	.	4.r	.	.	.	.	.
.	.	8D	Col-	.	.	.	.
=91	=91	=91	=91	=91	=91	=91	=91
1Em	E:sus2(b7)	4E	-lects	.	130.93	.	synthesizer
.	.	8E	it	.	.	.	.
.	.	8D	to	.	.	.	.
.	.	4E	go	.	.	.	.
.	.	8E	from	.	.	.	.
.	.	8D	the	.	.	.	.
=92	=92	=92	=92	=92	=92	=92	=92
1Em	E:sus2(b7)	8E	se-	.	132.377	.	synthesizer
.	.	8E	-ven	.	.	.	.
.	.	8F#	e-	.	.	.	.
.	.	4E	-lev-	(D	.	.	.
.	.	4D	-en.	d)	.	.	.
.	.	[8BB	_	.	.	.	.
=93	=93	=93	=93	=93	=93	=93	=93
1GMM	G:maj7	8BB]	_	.	133.824	newline	synthesizer
.	.	4GG	_	.	.	.	.
.	.	8r	.	.	.	.	.
.	.	2r	.	.	.	.	.
=94	=94	=94	=94	=94	=94	=94	=94
1F#mm	F#:min7	2r	.	.	135.254	.	synthesizer
.	.	8r	.	.	.	.	.
.	.	4E	Well	.	.	.	.
.	.	8D	he's	.	.	.	.
=95	=95	=95	=95	=95	=95	=95	=95
1Em	E:sus2(b7)	8E	out	.	136.684	.	synthesizer
.	.	8D	_	.	.	.	.
.	.	8E	all	.	.	.	.
.	.	8D	_	.	.	.	.
.	.	4E	night	.	.	.	.
.	.	8E	to	.	.	.	.
.	.	8D	col-	.	.	.	.
=96	=96	=96	=96	=96	=96	=96	=96
1Em	E:sus2(b7)	4E	-lect	.	138.114	.	synthesizer
.	.	4F#	a	.	.	.	.
.	.	8E	fare.	E	.	.	.
.	.	4D	_	.	.	.	.
.	.	[8BB	_	.	.	.	.
=97	=97	=97	=97	=97	=97	=97	=97
1GMM	G:maj7	8BB]	_	.	139.544	newline	synthesizer
.	.	8r	.	.	.	.	.
.	.	4r	.	.	.	.	.
.	.	2r	.	.	.	.	.
=98	=98	=98	=98	=98	=98	=98	=98
1F#mm	F#:min7	2.r	.	.	140.998	.	synthesizer
.	.	8E	Just	.	.	.	.
.	.	8D	so	.	.	.	.
=99	=99	=99	=99	=99	=99	=99	=99
1Em	E:sus2(b7)	4E	long	.	142.453	.	synthesizer
.	.	8E	just	.	.	.	.
.	.	8D	so	.	.	.	.
.	.	8E	long	.	.	.	.
.	.	8D	it	.	.	.	.
.	.	8E	don't	.	.	.	.
.	.	8D	mess	.	.	.	.
=100	=100	=100	=100	=100	=100	=100	=100
2Em	E:sus2(b7)	8E	up	.	143.907	.	synthesizer
.	.	8r	.	.	.	.	.
.	.	4F#	his	.	.	.	.
4DM	D:maj	8E	hair.	E	144.635	.	synthesizer
.	.	4.D	_	.	.	.	.
4AM	A:sus2	.	.	.	144.998	.	synthesizer
=101	=101	=101	=101	=101	=101	=101	=101
*>Letter>A	*>Letter>A	*>Letter>A	*>Letter>A	*>Letter>A	*>Letter>A	*>Letter>A	*>Letter>A
*>Label>Trans	*>Label>Trans	*>Label>Trans	*>Label>Trans	*>Label>Trans	*>Label>Trans	*>Label>Trans	*>Label>Trans
1Bm	B:min	2BB	_	.	145.362	newline	guitar
.	.	2r	.	.	.	.	.
=102	=102	=102	=102	=102	=102	=102	=102
1Bm	B:min	1r	.	.	146.798	.	guitar
=103	=103	=103	=103	=103	=103	=103	=103
1Bmm	B:min7	1r	.	.	148.235	.	guitar
=104	=104	=104	=104	=104	=104	=104	=104
1Bmm	B:min7	1r	.	.	149.671	.	guitar
=105	=105	=105	=105	=105	=105	=105	=105
*>Letter>C	*>Letter>C	*>Letter>C	*>Letter>C	*>Letter>C	*>Letter>C	*>Letter>C	*>Letter>C
*>Label>Solo	*>Label>Solo	*>Label>Solo	*>Label>Solo	*>Label>Solo	*>Label>Solo	*>Label>Solo	*>Label>Solo
1Bm	B:min	1r	.	.	151.107	newline	guitar
=106	=106	=106	=106	=106	=106	=106	=106
1Bm	B:min	1r	.	.	152.539	.	guitar
=107	=107	=107	=107	=107	=107	=107	=107
1Bm	B:min	1r	.	.	153.971	.	guitar
=108	=108	=108	=108	=108	=108	=108	=108
1Bm	B:min	1r	.	.	155.403	.	guitar
=109	=109	=109	=109	=109	=109	=109	=109
1DM	D:maj/5	1r	.	.	156.834	newline	guitar
=110	=110	=110	=110	=110	=110	=110	=110
1DM	D:maj/5	1r	.	.	158.264	.	guitar
=111	=111	=111	=111	=111	=111	=111	=111
1GMM	G:maj7	1r	.	.	159.694	.	guitar
=112	=112	=112	=112	=112	=112	=112	=112
2Emm	E:min7	1r	.	.	161.124	.	guitar
4DM	D:1	.	.	.	161.839	.	guitar
4AM	A:1	.	.	.	162.196	.	guitar
=113	=113	=113	=113	=113	=113	=113	=113
1Bm	B:min	1r	.	.	162.554	newline	guitar
=114	=114	=114	=114	=114	=114	=114	=114
1Bm	B:min	1r	.	.	164.014	.	guitar
=115	=115	=115	=115	=115	=115	=115	=115
1Bm	B:min	1r	.	.	165.474	.	guitar
=116	=116	=116	=116	=116	=116	=116	=116
1Bm	B:min	1r	.	.	166.934	.	guitar
=117	=117	=117	=117	=117	=117	=117	=117
1DM	D:maj/5	1r	.	.	168.394	newline	guitar
=118	=118	=118	=118	=118	=118	=118	=118
1DM	D:maj/5	1r	.	.	169.833	.	guitar
=119	=119	=119	=119	=119	=119	=119	=119
1GMM	G:maj7	1r	.	.	171.272	.	guitar
=120	=120	=120	=120	=120	=120	=120	=120
2Emm	E:min7	1r	.	.	172.711	.	guitar
4DM	D:1	.	.	.	173.43	.	guitar
4AM	A:1	.	.	.	173.79	.	guitar
=121	=121	=121	=121	=121	=121	=121	=121
*>Letter>A2	*>Letter>A2	*>Letter>A2	*>Letter>A2	*>Letter>A2	*>Letter>A2	*>Letter>A2	*>Letter>A2
*>Label>Trans	*>Label>Trans	*>Label>Trans	*>Label>Trans	*>Label>Trans	*>Label>Trans	*>Label>Trans	*>Label>Trans
1N	N	1r	.	.	174.15	newline	drums
=122	=122	=122	=122	=122	=122	=122	=122
1N	N	1r	.	.	175.599	.	drums
=123	=123	=123	=123	=123	=123	=123	=123
1N	N	1r	.	.	177.049	.	drums
=124	=124	=124	=124	=124	=124	=124	=124
1N	N	1r	.	.	178.498	.	drums
=125	=125	=125	=125	=125	=125	=125	=125
1N	N	1r	.	.	179.948	newline	drums
=126	=126	=126	=126	=126	=126	=126	=126
1N	N	1r	.	.	181.397	.	drums
=127	=127	=127	=127	=127	=127	=127	=127
1N	N	1r	.	.	182.847	.	drums
=128	=128	=128	=128	=128	=128	=128	=128
1N	N	1r	.	.	184.296	.	drums
=129	=129	=129	=129	=129	=129	=129	=129
*>Letter>C2	*>Letter>C2	*>Letter>C2	*>Letter>C2	*>Letter>C2	*>Letter>C2	*>Letter>C2	*>Letter>C2
*>Label>Bridge	*>Label>Bridge	*>Label>Bridge	*>Label>Bridge	*>Label>Bridge	*>Label>Bridge	*>Label>Bridge	*>Label>Bridge
1Bm	B:1	4r	.	.	185.746	newline	voice
.	.	4F#	I	.	.	.	.
.	.	4F#	walked	.	.	.	.
.	.	8E	the	.	.	.	.
.	.	[8F#	ward	.	.	.	.
=130	=130	=130	=130	=130	=130	=130	=130
1Bm	B:1	4F#]	_	.	187.18	.	voice
.	.	4r	.	.	.	.	.
.	.	4r	.	.	.	.	.
.	.	8E	with	.	.	.	.
.	.	[8F#	you	.	.	.	.
=131	=131	=131	=131	=131	=131	=131	=131
1Bm	B:1	4.F#]	_	.	188.614	.	voice
.	.	[8BB	babe.	.	.	.	.
.	.	2BB_	_	.	.	.	.
=132	=132	=132	=132	=132	=132	=132	=132
1Bm	B:1	4BB]	_	.	190.048	.	voice
.	.	4r	.	.	.	.	.
.	.	2r	.	.	.	.	.
=133	=133	=133	=133	=133	=133	=133	=133
1AM	A:1	4r	.	.	191.482	newline	voice
.	.	4F#	A	.	.	.	.
.	.	4F#	thou-	.	.	.	.
.	.	4F#	-sand	.	.	.	.
=134	=134	=134	=134	=134	=134	=134	=134
1AM	A:1	2F#	miles	.	192.915	.	voice
.	.	4r	.	.	.	.	.
.	.	8F#	with	.	.	.	.
.	.	[8BB	you.	.	.	.	.
=135	=135	=135	=135	=135	=135	=135	=135
1GM	G:1	1BB]	_	.	194.347	.	voice
=136	=136	=136	=136	=136	=136	=136	=136
2Em	E:1	1r	.	.	195.78	.	voice
4DM	D:1	.	.	.	196.496	.	voice
4AM	A:1	.	.	.	196.854	.	voice
=137	=137	=137	=137	=137	=137	=137	=137
1Bm	B:1	4r	.	.	197.212	newline	voice
.	.	4F#	I	.	.	.	.
.	.	4F#	dried	.	.	.	.
.	.	4F#	your	.	.	.	.
=138	=138	=138	=138	=138	=138	=138	=138
1Bm	B:1	2F#	tears	.	198.657	.	voice
.	.	4r	.	.	.	.	.
.	.	8E	of	.	.	.	.
.	.	8r	.	.	.	.	.
=139	=139	=139	=139	=139	=139	=139	=139
1Bm	B:1	8r	.	.	200.101	.	voice
.	.	2F#	pain	.	.	.	.
.	.	8r	.	.	.	.	.
.	.	[4BB	babe.	.	.	.	.
=140	=140	=140	=140	=140	=140	=140	=140
1Bm	B:1	2BB]	_	.	201.546	.	voice
.	.	2r	.	.	.	.	.
=141	=141	=141	=141	=141	=141	=141	=141
1AM	A:1	4r	.	.	202.99	newline	voice
.	.	4F#	A	.	.	.	.
.	.	4F#	mill-	.	.	.	.
.	.	4F#	-ion	.	.	.	.
=142	=142	=142	=142	=142	=142	=142	=142
1AM	A:1	2F#	times	.	204.444	.	voice
.	.	4r	.	.	.	.	.
.	.	8F#	for	.	.	.	.
.	.	[8F#	you.	.	.	.	.
=143	=143	=143	=143	=143	=143	=143	=143
1GM	G:1	1F#]	_	.	205.898	.	voice
=144	=144	=144	=144	=144	=144	=144	=144
2Em	E:1	1r	.	.	207.353	.	voice
4DM	D:1	.	.	.	208.08	.	voice
4AM	A:1	.	.	.	208.443	.	voice
=145	=145	=145	=145	=145	=145	=145	=145
1Bm	B:min	4r	.	.	208.807	newline	voice
.	.	4F#	I'd	.	.	.	.
.	.	4F#	sell	.	.	.	.
.	.	4F#	my	.	.	.	.
=146	=146	=146	=146	=146	=146	=146	=146
1Bm	B:min	2F#	soul	.	210.246	.	voice
.	.	2r	.	.	.	.	.
=147	=147	=147	=147	=147	=147	=147	=147
1Bm	B:min	4.F#	you	.	211.685	.	voice
.	.	[8BB	babe:	.	.	.	.
.	.	2BB_	_	.	.	.	.
=148	=148	=148	=148	=148	=148	=148	=148
1Bm	B:min	2BB]	_	.	213.124	.	voice
.	.	2r	.	.	.	.	.
=149	=149	=149	=149	=149	=149	=149	=149
1DM	D:maj/5	4r	.	.	214.563	newline	voice
.	.	8F#	for	.	.	.	.
.	.	8E	_	.	.	.	.
.	.	8F#	mon-	.	.	.	.
.	.	8F#	-ey	.	.	.	.
.	.	8E	to	.	.	.	.
.	.	[8F#	burn	.	.	.	.
=150	=150	=150	=150	=150	=150	=150	=150
1DM	D:maj/5	2F#]	_	.	216.024	.	voice
.	.	4r	.	.	.	.	.
.	.	8E	with	.	.	.	.
.	.	[8F#	you.	.	.	.	.
=151	=151	=151	=151	=151	=151	=151	=151
1GMM	G:maj7	2F#]	_	.	217.485	.	voice
.	.	2r	.	.	.	.	.
=152	=152	=152	=152	=152	=152	=152	=152
2Emm	E:min7	1r	.	.	218.946	.	voice
4DM	D:1	.	.	.	219.677	.	voice
4AM	A:1	.	.	.	220.042	.	voice
=153	=153	=153	=153	=153	=153	=153	=153
1Bm	B:min	4r	.	.	220.407	newline	voice
.	.	4f#	I'd	.	.	.	.
.	.	8f#	give	.	.	.	.
.	.	4f#	you	.	.	.	.
.	.	8f#	all	.	.	.	.
=154	=154	=154	=154	=154	=154	=154	=154
1Bm	B:min	[2e	_	.	221.833	.	voice
.	.	8e]	_	.	.	.	.
.	.	8f#	and	.	.	.	.
.	.	4f#	have	.	.	.	.
=155	=155	=155	=155	=155	=155	=155	=155
1Bm	B:min	4.f#	none	.	223.26	.	voice
.	.	[8B	babe:	.	.	.	.
.	.	2B]	_	.	.	.	.
=156	=156	=156	=156	=156	=156	=156	=156
1Bm	B:min	2r	.	.	224.686	.	voice
.	.	8r	.	.	.	.	.
.	.	4f#	Just	.	.	.	.
.	.	8e#	to	.	.	.	.
=157	=157	=157	=157	=157	=157	=157	=157
1DM	D:maj/5	4r	.	.	226.112	newline	voice
.	.	8f#	just	.	.	.	.
.	.	8e	to	.	.	.	.
.	.	4r	.	.	.	.	.
.	.	8f#	just	.	.	.	.
.	.	8e	to	.	.	.	.
=158	=158	=158	=158	=158	=158	=158	=158
1DM	D:maj/5	8r	.	.	227.541	.	voice
.	.	8B	a	.	.	.	.
.	.	8f#	just	.	.	.	.
.	.	8e	to	.	.	.	.
.	.	8r	.	.	.	.	.
.	.	8B	to	.	.	.	.
.	.	8f#	have	.	.	.	.
.	.	8e	you	.	.	.	.
=159	=159	=159	=159	=159	=159	=159	=159
1GMM	G:maj7	4f#	here	.	228.97	.	voice
.	.	4f#	by	.	.	.	.
.	.	8f#	me	.	.	.	.
.	.	4.f	_	.	.	.	.
=160	=160	=160	=160	=160	=160	=160	=160
1GMM	G:maj7	4r	.	.	230.398	.	voice
.	.	8f#	be-	.	.	.	.
.	.	8f#	-cause!	.	.	.	.
.	.	4f	_	.	.	.	.
.	.	4r	.	.	.	.	.
=161	=161	=161	=161	=161	=161	=161	=161
*>Letter>C	*>Letter>C	*>Letter>C	*>Letter>C	*>Letter>C	*>Letter>C	*>Letter>C	*>Letter>C
*>Label>Chorus	*>Label>Chorus	*>Label>Chorus	*>Label>Chorus	*>Label>Chorus	*>Label>Chorus	*>Label>Chorus	*>Label>Chorus
1Bm	B:min	4r	.	.	231.827	newline	voice
.	.	8f#	In	.	.	.	.
.	.	8f#	the	.	.	.	.
.	.	8f#	mid-	.	.	.	.
.	.	4f#	-night	.	.	.	.
.	.	8f#	hour	.	.	.	.
=162	=162	=162	=162	=162	=162	=162	=162
1Bm	B:min	4.f	_	.	233.275	.	voice
.	.	8r	.	.	.	.	.
.	.	8r	.	.	.	.	.
.	.	8e	she	.	.	.	.
.	.	4f#	cried	.	.	.	.
=163	=163	=163	=163	=163	=163	=163	=163
1Bm	B:min	4f#	more	.	234.723	.	voice
.	.	4r	.	.	.	.	.
.	.	4e	more	.	.	.	.
.	.	8r	.	.	.	.	.
.	.	[8B	more.	.	.	.	.
=164	=164	=164	=164	=164	=164	=164	=164
1Bm	B:min	4B]	_	.	236.172	.	voice
.	.	4r	.	.	.	.	.
.	.	2r	.	.	.	.	.
=165	=165	=165	=165	=165	=165	=165	=165
1DM	D:maj/5	4r	.	.	237.62	newline	voice
.	.	8f#	With	.	.	.	.
.	.	8f#	a	.	.	.	.
.	.	8f#	re-	.	.	.	.
.	.	4f#	-bel	.	.	.	.
.	.	8f#	yell	.	.	.	.
=166	=166	=166	=166	=166	=166	=166	=166
1DM	D:maj/5	4.f	_	.	239.076	.	voice
.	.	8r	.	.	.	.	.
.	.	8r	.	.	.	.	.
.	.	8e	she	.	.	.	.
.	.	4f#	cried	.	.	.	.
=167	=167	=167	=167	=167	=167	=167	=167
1GMM	G:maj7	4f#	more	.	240.531	.	voice
.	.	4r	.	.	.	.	.
.	.	4e	more	.	.	.	.
.	.	8r	.	.	.	.	.
.	.	[8B	more.	.	.	.	.
=168	=168	=168	=168	=168	=168	=168	=168
2Emm	E:min7	8B]	_	.	241.987	.	voice
.	.	8d	_	.	.	.	.
.	.	4.B	_	.	.	.	.
4DM	D:1	.	.	.	242.715	.	voice
.	.	8r	.	.	.	.	.
4AM	A:1	4r	.	.	243.079	.	voice
=169	=169	=169	=169	=169	=169	=169	=169
1Bm	B:min	4r	.	.	243.443	newline	voice
.	.	8f#	In	.	.	.	.
.	.	8f#	the	.	.	.	.
.	.	8f#	mid-	.	.	.	.
.	.	4f#	-night	.	.	.	.
.	.	8f#	hour	.	.	.	.
=170	=170	=170	=170	=170	=170	=170	=170
1Bm	B:min	4f	_	.	244.875	.	voice
.	.	2d	babe.	.	.	.	.
.	.	4r	.	.	.	.	.
=171	=171	=171	=171	=171	=171	=171	=171
1Bm	B:min	4f#	more	.	246.306	.	voice
.	.	4r	.	.	.	.	.
.	.	4e	more	.	.	.	.
.	.	8r	.	.	.	.	.
.	.	[8B	more.	.	.	.	.
=172	=172	=172	=172	=172	=172	=172	=172
1Bm	B:min	2B]	_	.	247.738	.	voice
.	.	2r	.	.	.	.	.
=173	=173	=173	=173	=173	=173	=173	=173
1DM	D:maj/5	4r	.	.	249.169	newline	voice
.	.	8f#	With	.	.	.	.
.	.	8f#	a	.	.	.	.
.	.	8f#	re-	.	.	.	.
.	.	4f#	-bel	.	.	.	.
.	.	8f#	yell	.	.	.	.
=174	=174	=174	=174	=174	=174	=174	=174
1DM	D:maj/5	2f	_	.	250.604	.	voice
.	.	8r	.	.	.	.	.
.	.	8e	she	.	.	.	.
.	.	4f#	cried	.	.	.	.
=175	=175	=175	=175	=175	=175	=175	=175
1GMM	G:maj7	2f#	more	.	252.04	.	voice
.	.	4.e	more	.	.	.	.
.	.	[8f#	more.	.	.	.	.
=176	=176	=176	=176	=176	=176	=176	=176
1GMM	G:maj7	4f#]	_	.	253.475	.	voice
.	.	4r	.	.	.	.	.
.	.	4f#	more	.	.	.	.
.	.	4f#	more	.	.	.	.
=177	=177	=177	=177	=177	=177	=177	=177
*>Letter>C	*>Letter>C	*>Letter>C	*>Letter>C	*>Letter>C	*>Letter>C	*>Letter>C	*>Letter>C
*>Label>Solo	*>Label>Solo	*>Label>Solo	*>Label>Solo	*>Label>Solo	*>Label>Solo	*>Label>Solo	*>Label>Solo
1Bmm	B:min7	4f#	more.	.	254.91	newline	guitar
.	.	4B	_	.	.	.	.
.	.	2r	.	.	.	.	.
=178	=178	=178	=178	=178	=178	=178	=178
1Bmm	B:min7	1r	.	.	256.365	.	guitar
=179	=179	=179	=179	=179	=179	=179	=179
1Bmm	B:min7	1r	.	.	257.82	.	guitar
=180	=180	=180	=180	=180	=180	=180	=180
1Bmm	B:min7	4r	.	.	259.275	.	guitar
.	.	8f#	Ooh	.	.	.	.
.	.	4e	yeah	.	.	.	.
.	.	8d	a	.	.	.	.
.	.	8e	lit-	.	.	.	.
.	.	8f#	-tle	.	.	.	.
=181	=181	=181	=181	=181	=181	=181	=181
1DM	D:maj/5	4e	ba-	.	260.73	newline	guitar
.	.	2d	-by.	.	.	.	.
.	.	4r	.	.	.	.	.
=182	=182	=182	=182	=182	=182	=182	=182
1DM	D:maj/5	2r	.	.	262.164	.	guitar
.	.	8r	.	.	.	.	.
.	.	8e	she	.	.	.	.
.	.	8f#	want	.	.	.	.
.	.	[8B	more.	.	.	.	.
=183	=183	=183	=183	=183	=183	=183	=183
1GMM	G:maj7	4B]	_	.	263.599	.	guitar
.	.	4r	.	.	.	.	.
.	.	2r	.	.	.	.	.
=184	=184	=184	=184	=184	=184	=184	=184
2Emm	E:min7	4f#	More	.	265.034	.	guitar
.	.	4f#	more	.	.	.	.
4DM	D:1	4f#	more	.	265.751	.	guitar
4AM	A:1	4f#	more	.	266.109	.	guitar
=185	=185	=185	=185	=185	=185	=185	=185
1Bmm	B:min7	4f#	more.	.	266.468	newline	guitar
.	.	2B	_	.	.	.	.
.	.	4r	.	.	.	.	.
=186	=186	=186	=186	=186	=186	=186	=186
1Bmm	B:min7	1r	.	.	267.915	.	guitar
=187	=187	=187	=187	=187	=187	=187	=187
1Bmm	B:min7	4r	.	.	269.361	.	guitar
.	.	8f#	Ooh	.	.	.	.
.	.	4e	yeah	.	.	.	.
.	.	8d	a	.	.	.	.
.	.	8e	lit-	.	.	.	.
.	.	8f#	-tle	.	.	.	.
=188	=188	=188	=188	=188	=188	=188	=188
1Bmm	B:min7	4e	an-	.	270.808	.	guitar
.	.	2d	-gel.	.	.	.	.
.	.	4r	.	.	.	.	.
=189	=189	=189	=189	=189	=189	=189	=189
1DM	D:maj/5	1r	.	.	272.255	newline	guitar
=190	=190	=190	=190	=190	=190	=190	=190
1DM	D:maj/5	2r	.	.	273.695	.	guitar
.	.	8r	.	.	.	.	.
.	.	8e	she	.	.	.	.
.	.	8f#	want	.	.	.	.
.	.	[8B	more.	.	.	.	.
=191	=191	=191	=191	=191	=191	=191	=191
1GMM	G:maj7	8B]	_	.	275.136	.	guitar
.	.	8r	.	.	.	.	.
.	.	4r	.	.	.	.	.
.	.	2r	.	.	.	.	.
=192	=192	=192	=192	=192	=192	=192	=192
2Emm	E:min7	4f#	More	.	276.577	.	guitar
.	.	4f#	more	.	.	.	.
4DM	D:1	4f#	more	.	277.297	.	guitar
4AM	A:1	4f#	more	.	277.657	.	guitar
=193	=193	=193	=193	=193	=193	=193	=193
*>Letter>A	*>Letter>A	*>Letter>A	*>Letter>A	*>Letter>A	*>Letter>A	*>Letter>A	*>Letter>A
*>Label>Outro	*>Label>Outro	*>Label>Outro	*>Label>Outro	*>Label>Outro	*>Label>Outro	*>Label>Outro	*>Label>Outro
1Bmm	B:min7	4f#	more.	.	278.017	newline	synthesizer
.	.	2B	_	.	.	.	.
.	.	4r	.	.	.	.	.
=194	=194	=194	=194	=194	=194	=194	=194
1Bmm	B:min7	1r	.	.	279.47	.	synthesizer
=195	=195	=195	=195	=195	=195	=195	=195
1Bmm	B:min7	1r	.	.	280.924	.	synthesizer
=196	=196	=196	=196	=196	=196	=196	=196
1Bmm	B:min7	1r	.	.	282.377	.	synthesizer
=197	=197	=197	=197	=197	=197	=197	=197
1Bmm	B:min7	1r	.	.	283.83	newline	synthesizer
1r;	1r	r;	.	.	285.884	.	r
1r;	1r	r;	.	.	290.664	.	r
*-	*-	*-	*-	*-	*-	*-	*-
!!!BillboardChartDate: 1984/04/07
!!!BillboardPeak: 46
!!!BillboardWeeksOnChart: 14
!!!COC: Billy Idol
!!!ENC: Nathaniel Condit-Schultz
!!!EST: Awating manual error checking and editing.
!!!OTL: Rebel Yell
!!!RDF**chordsym: original McGill chord annotation + (implied pitch class set, with bass pitch in first position)
!!!RDF**harmony: **recip + pitch class of root + harmonic quality
!!!RDF**leadinstrument: original McGill primary instrumentation annotation
!!!RDF**phrase: newline = linebreak in original McGill transcription
!!!RDF**timestamp: McGill audio timestamp in seconds
!!!RDT: 2017/01/12/
!!!SampleActualRank: 61
!!!SampleID#: 1167
!!!SampleTargetRank: 61
!!!MBID: 99b99f36-8cea-4df7-96e8-fe32965abc93
